X: 1
T: The Hunter's Purse
R: reel
M: 4/4
L: 1/8
K: Ador
ed|:cAAB AGEF|GFAF GFED|cBcd eged|cdef gedg|
eAAB AGEF|GFAF GFED|cBcd eged|1 (3cBA BG A2 ed:|2 (3cBA BG A2 cd||
|:eaab aged|cdef gedB|cBcd eged|cdef gedg|
eaab aged|cdef gedB|cBcd eged|1 (3cBA BG A2 cd:|2 (3cBA BG A4||


Tune 283	Setting 25489

